svgs/sharp-light/message-smile.svg

<svg xmlns="http://www.w3.org/2000/svg" viewBox="0 0 512 512"><!--! Font Awesome Pro 6.6.0 by @fontawesome - https://fontawesome.com License - https://fontawesome.com/license (Commercial License) Copyright 2024 Fonticons, Inc. --><path d="M160 416l-32 0-96 0L0 416l0-32L0 32 0 0 32 0 480 0l32 0 0 32 0 352 0 32-32 0-176 0L192 490.7 160 512l0-38.5 0-25.5 0-32zm0-32l32 0 0 32 0 36.2 94.2-62.8 8.1-5.4 9.7 0 176 0 0-352L32 32l0 352 128 0zm32-248a24 24 0 1 1 0 48 24 24 0 1 1 0-48zm128 0a24 24 0 1 1 0 48 24 24 0 1 1 0-48zM167.8 241.4l10.7 11.9C197.5 274.6 225.2 288 256 288s58.5-13.4 77.5-34.7l10.7-11.9L368 262.7l-10.7 11.9C332.5 302.5 296.3 320 256 320s-76.5-17.5-101.4-45.3L144 262.7l23.8-21.3z"/></svg>

<svg xmlns="http://www.w3.org/2000/svg" viewBox="0 0 512 512"><!--! Font Awesome Pro 6.4.2 by @fontawesome - https://fontawesome.com License - https://fontawesome.com/license (Commercial License) Copyright 2023 Fonticons, Inc. --><path d="M160 416H128 32 0V384 32 0H32 480h32V32 384v32H480 304L192 490.7 160 512V473.5 448 416zm0-32h32v32 36.2l94.2-62.8 8.1-5.4H304 480V32H32V384H160zm32-248a24 24 0 1 1 0 48 24 24 0 1 1 0-48zm128 0a24 24 0 1 1 0 48 24 24 0 1 1 0-48zM167.8 241.4l10.7 11.9C197.5 274.6 225.2 288 256 288s58.5-13.4 77.5-34.7l10.7-11.9L368 262.7l-10.7 11.9C332.5 302.5 296.3 320 256 320s-76.5-17.5-101.4-45.3L144 262.7l23.8-21.3z"/></svg>
